X:27
T:The Rookery
R:reel
C:Vincent Broderick
B:The Turoe Stone
D:Land's End - Michael Rooney & June McCormack
S:Clare FM
Z:psc -  http://www.cranfordpub.com
L:1/8
Q:333
M:C|
K:G
B2 AG EGDG|EGDG EGDE|~G2 (3(Bcd) egdg|egdg edBA|
~G3 A BA (3(Bcd)|~e3 d efga|bgag eage|dBAc BG ~G2:|
|:b2 gb a2 ga|b2 gb aged|~G2 (3(Bcd) egdg|egdg edBA|
GDGA BA (3(Bcd)|~e3 d efga|bgag e2 ge|dBAc BG ~G2:|
